assets/images/configural.svg

<svg width="40" height="40" viewBox="0 0 40 40" fill="none" xmlns="http://www.w3.org/2000/svg">
<path d="M36.8064 10.4864C36.8072 7.3152 36.808 4.144 36.8096 0.9728C36.8096 0.9456 36.8096 0.9176 36.808 0.8912C36.808 0.8744 36.808 0.8576 36.8056 0.8408C36.8056 0.8384 36.8056 0.836 36.8048 0.8344C36.8048 0.8272 36.8048 0.82 36.804 0.8128C36.8032 0.8032 36.8024 0.7944 36.8016 0.7848C36.8016 0.7832 36.8008 0.7816 36.8008 0.78V0.7768C36.8 0.7672 36.7992 0.7568 36.7976 0.7464C36.7968 0.7368 36.7952 0.7264 36.7936 0.7168V0.7144C36.7912 0.6936 36.788 0.6728 36.784 0.6528C36.7808 0.6312 36.776 0.6112 36.7712 0.5904C36.7656 0.5672 36.76 0.5448 36.7528 0.5224C36.7456 0.4992 36.7384 0.4776 36.7296 0.456C36.7224 0.4368 36.7144 0.4184 36.7056 0.4C36.6952 0.3776 36.6832 0.3544 36.6696 0.3328C36.6584 0.3136 36.6456 0.2944 36.632 0.276C36.6048 0.2384 36.5744 0.2032 36.5392 0.1704C36.5304 0.1616 36.5208 0.1536 36.512 0.1464C36.4936 0.1296 36.4744 0.1144 36.4544 0.1H36.4536C36.4328 0.0856 36.4112 0.0712 36.388 0.0576C36.3768 0.0504 36.3648 0.044 36.3528 0.0376C36.3408 0.0312 36.3288 0.0248 36.316 0.0184C36.304 0.012 36.2912 0.0056 36.2784 0H3.64241C3.24081 0.184 3.12 0.5032 3.12 0.9344C3.1272 13.6448 3.1272 26.3552 3.12 39.0656C3.12 39.4968 3.24161 39.8152 3.64241 40H36.2784C36.3832 39.952 36.4688 39.8952 36.5384 39.8296C36.556 39.8128 36.572 39.796 36.5872 39.7784C36.5976 39.7664 36.608 39.7544 36.6176 39.7416C36.6264 39.7304 36.6352 39.7184 36.6432 39.7064C36.6456 39.7032 36.648 39.6992 36.6504 39.696C36.6568 39.6864 36.6632 39.6768 36.6688 39.6672C36.6744 39.6584 36.6792 39.6496 36.684 39.64C36.6872 39.6344 36.6904 39.628 36.6936 39.6224C36.6976 39.6136 36.7024 39.6048 36.7064 39.596C36.712 39.5848 36.7168 39.5736 36.7216 39.5624C36.7216 39.5616 36.7224 39.56 36.7232 39.5592C36.724 39.5576 36.7248 39.5552 36.7248 39.5536C36.7272 39.548 36.7296 39.5424 36.732 39.536C36.7432 39.5056 36.7536 39.4752 36.7616 39.444C36.7664 39.428 36.7704 39.412 36.7736 39.396C36.7776 39.38 36.7808 39.3624 36.784 39.3456C36.7872 39.3288 36.7896 39.3112 36.792 39.2944C36.7952 39.2776 36.7968 39.2616 36.7984 39.2448C36.8008 39.2264 36.8024 39.2072 36.804 39.188C36.8056 39.1624 36.8072 39.136 36.808 39.1096C36.8088 39.0824 36.8096 39.0552 36.8096 39.0272C36.808 35.856 36.8072 32.6848 36.8064 29.5136C36.8048 23.1712 36.8048 16.8288 36.8064 10.4864ZM14.6064 1.3984C14.7544 1.3912 14.884 1.3792 15.0144 1.3792C18.3072 1.3784 21.5992 1.3848 24.892 1.3696C25.2664 1.368 25.3648 1.4776 25.3552 1.8408C25.3496 2.0544 25.3456 2.2672 25.344 2.4808C25.3376 3.1224 25.3448 3.764 25.3448 4.4056V4.6C25.344 4.7296 25.332 4.8592 25.324 5.012H14.6064V1.3984ZM14.0576 6.3984C17.9896 6.4 21.9216 6.4 25.8536 6.3984C26.4632 6.3976 26.7008 6.1584 26.708 5.552C26.7128 5.1288 26.7088 4.7056 26.7088 4.2624H32.5576V35.732H7.3744V4.2568H13.2112C13.2112 4.6976 13.2072 5.1208 13.212 5.5432C13.22 6.16 13.4512 6.3976 14.0576 6.3984ZM35.4416 38.1944C35.4416 38.5168 35.3632 38.6288 35.0216 38.6288C24.984 38.62 14.9456 38.6208 4.9072 38.628C4.8912 38.628 4.876 38.628 4.8616 38.6272C4.8496 38.6272 4.8392 38.6264 4.828 38.6256C4.8232 38.6256 4.8192 38.6256 4.8144 38.6248C4.8064 38.6248 4.7984 38.6248 4.7912 38.6232C4.7816 38.6224 4.77281 38.6216 4.76401 38.62C4.75441 38.62 4.7456 38.6176 4.7368 38.616C4.7088 38.612 4.684 38.6056 4.6616 38.5968C4.6368 38.588 4.616 38.5768 4.5968 38.564C4.596 38.564 4.5952 38.564 4.5952 38.5632C4.576 38.5496 4.56 38.5336 4.5464 38.516C4.532 38.4976 4.5208 38.476 4.5112 38.4512C4.508 38.4424 4.50481 38.4336 4.50241 38.424C4.50001 38.416 4.4976 38.408 4.496 38.4C4.4944 38.3936 4.4928 38.3872 4.492 38.3808C4.4904 38.3736 4.4896 38.3672 4.488 38.36C4.4856 38.3472 4.48401 38.3328 4.48241 38.3184C4.47921 38.284 4.4776 38.2456 4.4776 38.204C4.4856 26.0712 4.4856 13.9384 4.4784 1.8056C4.4784 1.7904 4.4784 1.776 4.4792 1.7616C4.4792 1.748 4.48 1.7344 4.4808 1.7208C4.4816 1.6944 4.484 1.6696 4.488 1.6472C4.4888 1.6424 4.4896 1.6368 4.4904 1.632C4.4896 1.6312 4.4896 1.6304 4.4904 1.6296C4.4904 1.6248 4.49201 1.62 4.49361 1.6152C4.49521 1.6048 4.4976 1.5952 4.5 1.5856C4.5 1.584 4.5 1.5824 4.5016 1.5808C4.5048 1.568 4.50881 1.5568 4.51281 1.5456C4.51601 1.5368 4.52 1.528 4.5248 1.52C4.5336 1.5008 4.5448 1.484 4.5584 1.4688C4.5664 1.46 4.57441 1.452 4.58321 1.4448C4.60081 1.4304 4.6216 1.4184 4.6448 1.4088C4.6488 1.4072 4.6528 1.4056 4.6568 1.404C4.6656 1.4 4.6752 1.3968 4.6848 1.3944C4.6872 1.3936 4.69041 1.3928 4.69281 1.392C4.70401 1.3888 4.716 1.3864 4.7288 1.384C4.7408 1.3816 4.7536 1.38 4.7672 1.3784C4.7776 1.3768 4.7888 1.3752 4.8008 1.3752C4.8128 1.3736 4.8248 1.3728 4.8384 1.3728C4.8576 1.3712 4.8768 1.3712 4.8976 1.3712C7.5368 1.384 10.1768 1.384 12.816 1.3712C12.8552 1.3712 12.8904 1.3728 12.9232 1.376C12.9536 1.3784 12.9816 1.3824 13.0072 1.3888C13.0208 1.392 13.0336 1.396 13.0456 1.4C13.056 1.404 13.0664 1.408 13.0752 1.412C13.0928 1.42 13.108 1.4288 13.1216 1.44C13.1264 1.4432 13.1312 1.4472 13.1352 1.4512C13.1408 1.4552 13.1464 1.4608 13.1512 1.4672C13.1576 1.4744 13.164 1.4824 13.1704 1.4912C13.1936 1.5256 13.208 1.568 13.2144 1.6208C13.2184 1.6576 13.22 1.6984 13.2184 1.7448C13.2184 1.7568 13.2176 1.7696 13.2168 1.7824C13.2 2.0184 13.204 2.2568 13.208 2.5144C13.2096 2.6304 13.2112 2.7504 13.2112 2.876H6.9944C6.916 2.876 6.844 2.8776 6.7768 2.8816C6.7552 2.8832 6.7328 2.8848 6.712 2.8864C6.6904 2.888 6.6704 2.8896 6.6504 2.892C6.6304 2.8944 6.6104 2.896 6.592 2.8992C6.5416 2.9056 6.49521 2.9144 6.45281 2.9264C6.43521 2.9304 6.4184 2.9352 6.4016 2.9408C6.3832 2.9464 6.3648 2.9528 6.348 2.96C6.3296 2.9672 6.312 2.9752 6.296 2.984C6.2792 2.9928 6.2632 3.0024 6.248 3.012C6.2408 3.016 6.2344 3.0208 6.228 3.0256C6.22 3.0312 6.212 3.0376 6.2048 3.044C6.1944 3.052 6.1848 3.0608 6.1752 3.0704C6.1568 3.0888 6.13921 3.1088 6.12401 3.1312C6.10961 3.1512 6.096 3.1728 6.0848 3.196C6.0784 3.208 6.0728 3.22 6.068 3.232C6.0624 3.2448 6.05761 3.2576 6.05281 3.2712C6.04801 3.284 6.0432 3.2976 6.0392 3.3112C6.036 3.3208 6.0328 3.3312 6.0304 3.3424C6.0248 3.3608 6.0208 3.3808 6.0168 3.4008C6.0128 3.4208 6.0088 3.4416 6.0056 3.4632C6.0024 3.4848 5.9992 3.5072 5.9968 3.5304C5.9936 3.5528 5.9912 3.5768 5.9896 3.6016C5.9864 3.644 5.98401 3.688 5.98241 3.7344C5.98081 3.7808 5.98 3.8304 5.98 3.8816V36.1208C5.98 36.1608 5.9792 36.2008 5.98 36.2408C5.98 36.2776 5.98161 36.3136 5.98321 36.348C5.98481 36.3824 5.9872 36.416 5.9912 36.448C5.9928 36.464 5.9944 36.4792 5.9968 36.4952C6.0008 36.5296 6.00641 36.5616 6.01361 36.5928L6.0208 36.624C6.024 36.6384 6.028 36.652 6.032 36.6656C6.0424 36.7024 6.0552 36.736 6.0704 36.768C6.0736 36.7752 6.0768 36.7824 6.0808 36.7888C6.0848 36.7984 6.0904 36.808 6.096 36.8168C6.1072 36.8368 6.1192 36.8544 6.132 36.872C6.1464 36.892 6.1624 36.9104 6.1808 36.928C6.2512 36.9976 6.3424 37.0456 6.4568 37.0776C6.4712 37.0816 6.4856 37.0856 6.5008 37.0888C6.5312 37.0952 6.5632 37.1008 6.596 37.1056C6.6792 37.1176 6.7728 37.1232 6.8768 37.1232C15.5952 37.124 24.3136 37.124 33.032 37.1232C33.72 37.1232 33.94 36.9032 33.94 36.2112C33.9408 25.412 33.9408 14.612 33.94 3.8128C33.94 3.6328 33.9264 3.4848 33.8952 3.364C33.8872 3.3336 33.8784 3.3048 33.8688 3.2776C33.8624 3.2608 33.8552 3.2448 33.848 3.2288C33.84 3.2104 33.8312 3.1944 33.8216 3.1784C33.8144 3.1656 33.8064 3.1536 33.7984 3.1416C33.7896 3.1288 33.78 3.1168 33.7704 3.1056C33.7496 3.08 33.7256 3.0568 33.6992 3.0368C33.6896 3.0288 33.6808 3.0216 33.6704 3.0152C33.6544 3.004 33.6376 2.9936 33.62 2.984C33.596 2.9712 33.5712 2.9592 33.5448 2.9496C33.5208 2.9408 33.496 2.932 33.4696 2.9256C33.4624 2.9232 33.4544 2.9216 33.4472 2.92C33.4304 2.916 33.4128 2.912 33.3952 2.9088C33.3672 2.9016 33.3368 2.8968 33.3064 2.8936C33.2864 2.8912 33.2656 2.8888 33.2448 2.8872C33.2128 2.8832 33.1784 2.8808 33.1432 2.88C33.1232 2.8784 33.1024 2.8784 33.0808 2.8776C33.06 2.8768 33.0384 2.8768 33.016 2.8768C31.0824 2.8752 29.1496 2.876 27.2168 2.876H26.7144C26.7144 2.4192 26.7 1.9848 26.7296 1.5536C26.7296 1.5504 26.7304 1.5472 26.7312 1.544C26.7328 1.5408 26.7336 1.5376 26.736 1.5344C26.7376 1.5304 26.74 1.5272 26.7432 1.5232C26.7512 1.512 26.764 1.5008 26.7792 1.4896C26.784 1.4856 26.7896 1.4816 26.796 1.4776C26.8016 1.4736 26.8088 1.4696 26.8152 1.4656C26.8216 1.4616 26.8288 1.4576 26.836 1.4536C26.848 1.4472 26.8608 1.4408 26.8736 1.4352C26.8832 1.4312 26.892 1.4272 26.9016 1.4232C26.9016 1.4232 26.9016 1.4224 26.9024 1.4224C26.9152 1.4176 26.9288 1.4128 26.9424 1.4088C26.9536 1.4048 26.9648 1.4016 26.9752 1.3992C26.9824 1.3976 26.9896 1.3952 26.9968 1.3936C27.0032 1.3928 27.0096 1.3912 27.0152 1.3904C27.0296 1.388 27.0424 1.3864 27.0544 1.3864C28.0936 1.3736 29.1336 1.3784 30.1736 1.3784C31.2136 1.3784 32.2472 1.3824 33.2848 1.38C33.664 1.38 34.044 1.3784 34.4232 1.376C34.62 1.3744 34.816 1.3728 35.0128 1.3712C35.0328 1.3712 35.052 1.3712 35.0704 1.372C35.0792 1.372 35.088 1.3728 35.0968 1.3728C35.1248 1.3744 35.1504 1.3768 35.1736 1.3808C35.1824 1.3824 35.1912 1.384 35.1992 1.3856C35.208 1.3872 35.2168 1.3888 35.224 1.3912C35.2384 1.3944 35.2504 1.3984 35.2624 1.4032C35.2744 1.4072 35.2864 1.412 35.2968 1.4184C35.3072 1.4232 35.3168 1.4296 35.3264 1.4368C35.336 1.4432 35.3448 1.4512 35.3528 1.4592C35.3608 1.4664 35.3688 1.4752 35.3752 1.4848C35.3816 1.4944 35.388 1.504 35.3936 1.5152C35.4056 1.5368 35.4144 1.5608 35.4216 1.588C35.4248 1.6016 35.428 1.616 35.4304 1.632C35.4336 1.6472 35.436 1.6632 35.4368 1.68C35.4392 1.7064 35.4408 1.7352 35.4416 1.7656C35.4424 1.7752 35.4424 1.7856 35.4424 1.796C35.4408 4.8288 35.4392 7.8624 35.4376 10.8952C35.4352 19.9952 35.436 29.0952 35.4416 38.1944Z" fill="#3F51B5"/>
<path d="M28.2693 9.2752C28.2677 8.5272 28.0629 8.3192 27.3245 8.3184C26.0989 8.3176 24.8725 8.3176 23.6461 8.3176H19.9685C18.7293 8.3184 17.4893 8.3176 16.2501 8.3176C15.0109 8.3176 13.7717 8.3184 12.5325 8.3192C11.8893 8.3192 11.6549 8.5488 11.6517 9.18C11.6469 10.1528 11.6469 11.1256 11.6517 12.0984C11.6549 12.7128 11.8917 12.9536 12.4973 12.9544C17.4677 12.956 22.4381 12.956 27.4093 12.9544C28.0357 12.9544 28.2653 12.7168 28.2685 12.0736C28.2725 11.1408 28.2709 10.208 28.2685 9.2752H28.2693ZM26.8941 11.5624H13.0405V9.7136H26.8941V11.5624Z" fill="#3F51B5"/>
<path d="M23.9526 19.5288C21.9398 19.5288 19.927 19.5288 17.9142 19.5288C17.7814 19.5288 17.6462 19.536 17.515 19.5168C17.1814 19.468 16.9222 19.1784 16.9382 18.8528C16.955 18.5096 17.1398 18.276 17.4806 18.1992C17.6214 18.1672 17.7718 18.1768 17.9182 18.176C21.9438 18.1752 25.9694 18.1752 29.9942 18.176C30.6542 18.176 30.9774 18.392 30.9894 18.8376C31.0022 19.3024 30.6758 19.5288 29.9902 19.5288C27.9774 19.5288 25.9646 19.5288 23.9518 19.5288H23.9526Z" fill="#3F51B5"/>
<path d="M23.9344 26.6936C21.9376 26.6936 19.94 26.6936 17.9432 26.692C17.784 26.692 17.6208 26.692 17.4672 26.6576C17.1232 26.5816 16.9376 26.3416 16.9416 25.9992C16.9456 25.656 17.144 25.4264 17.4848 25.3512C17.6256 25.32 17.776 25.3224 17.9216 25.3224C21.9424 25.3208 25.9632 25.3208 29.9848 25.3216C30.6544 25.3216 30.9968 25.5608 30.9912 26.0184C30.9856 26.4728 30.652 26.6936 29.9664 26.6936C27.956 26.6936 25.9456 26.6936 23.9352 26.6936H23.9344Z" fill="#3F51B5"/>
<path d="M23.9198 33.844C21.9222 33.844 19.9238 33.844 17.9262 33.844C17.7934 33.844 17.6582 33.8512 17.527 33.8336C17.1998 33.7896 16.9422 33.4984 16.9342 33.1792C16.9262 32.8424 17.1886 32.5384 17.5366 32.4936C17.655 32.4784 17.7758 32.4848 17.8958 32.4848C21.9446 32.4848 25.9935 32.4848 30.0431 32.4848C30.1631 32.4848 30.2847 32.4784 30.4023 32.4952C30.7535 32.5448 31.0022 32.844 30.991 33.1896C30.9806 33.5144 30.7303 33.7912 30.3927 33.8344C30.2615 33.8512 30.1271 33.8448 29.9935 33.8448C27.9687 33.8448 25.9446 33.8448 23.9198 33.8448V33.844Z" fill="#3F51B5"/>
<path d="M21.8384 22.2224C23.1304 22.2224 24.4216 22.2224 25.7136 22.2232C25.86 22.2232 26.0096 22.2192 26.1512 22.2488C26.48 22.3176 26.6568 22.5456 26.672 22.8696C26.6872 23.196 26.5232 23.4376 26.2048 23.5304C26.0424 23.5776 25.8632 23.5808 25.692 23.5808C23.1088 23.584 20.5248 23.5832 17.9416 23.5824C17.272 23.5824 16.9264 23.3424 16.9352 22.8864C16.944 22.436 17.2608 22.2224 17.9232 22.2216C19.228 22.2216 20.5336 22.2216 21.8384 22.2216V22.2224Z" fill="#3F51B5"/>
<path d="M21.7989 29.364C23.1445 29.364 24.4901 29.3624 25.8357 29.364C26.3589 29.3648 26.6845 29.6384 26.6765 30.0592C26.6685 30.4744 26.3685 30.7232 25.8517 30.7232C23.1605 30.7256 20.4685 30.7256 17.7773 30.7232C17.2437 30.7232 16.9237 30.456 16.9317 30.0352C16.9397 29.6232 17.2709 29.364 17.8005 29.3632C19.1325 29.3616 20.4653 29.3632 21.7973 29.3632L21.7989 29.364Z" fill="#3F51B5"/>
<path d="M21.7582 16.4168C20.4806 16.4168 19.2022 16.4168 17.9246 16.4168C17.7918 16.4168 17.6574 16.4224 17.5262 16.4056C17.1966 16.3632 16.9294 16.0744 16.939 15.7536C16.9494 15.4104 17.1238 15.1704 17.467 15.0936C17.6206 15.0592 17.7846 15.0656 17.9438 15.0656C20.5126 15.064 23.0822 15.0648 25.651 15.0648C25.7574 15.0648 25.8646 15.0608 25.9702 15.068C26.4094 15.0976 26.6934 15.3824 26.6766 15.772C26.6606 16.1416 26.375 16.4104 25.9518 16.4128C24.5542 16.42 23.1566 16.4152 21.759 16.4168H21.7582Z" fill="#3F51B5"/>
<path d="M11.0414 25.1104C11.7974 24.3408 12.4766 23.6488 13.1582 22.9584C13.4294 22.6832 13.6998 22.4072 13.979 22.14C14.2966 21.836 14.7038 21.8232 14.9774 22.096C15.2502 22.3688 15.2478 22.7848 14.9398 23.0952C13.8334 24.212 12.723 25.3256 11.6038 26.4296C11.2422 26.7864 10.8862 26.7744 10.5174 26.4176C10.0582 25.9728 9.60457 25.5208 9.16057 25.0608C8.84937 24.7376 8.85177 24.3392 9.13897 24.068C9.41737 23.8056 9.83497 23.8216 10.139 24.1296C10.4286 24.4232 10.6982 24.736 11.0406 25.1104H11.0414Z" fill="#3F51B5"/>
<path d="M11.0207 32.268C11.9831 31.2992 12.8455 30.4312 13.7079 29.5632C13.8111 29.4592 13.9111 29.3512 14.0207 29.2552C14.3415 28.9744 14.7071 28.9768 14.9823 29.2568C15.2463 29.524 15.2503 29.9232 14.9591 30.2216C14.2807 30.9168 13.5903 31.6 12.9031 32.2872C12.4703 32.72 12.0431 33.1592 11.5999 33.5816C11.2151 33.948 10.9055 33.9416 10.5239 33.572C10.0655 33.1272 9.61188 32.6768 9.16628 32.2192C8.85428 31.8992 8.84948 31.5048 9.13188 31.2272C9.40948 30.956 9.81828 30.9616 10.1263 31.2736C10.4247 31.5752 10.6951 31.904 11.0191 32.2672L11.0207 32.268Z" fill="#3F51B5"/>
<path d="M11.0279 17.9656C11.9151 17.0672 12.7087 16.264 13.5031 15.4608C13.6719 15.2904 13.8359 15.1152 14.0135 14.9544C14.3103 14.6856 14.7287 14.6896 14.9855 14.9528C15.2351 15.2088 15.2535 15.6128 14.9799 15.8904C13.8487 17.0384 12.7095 18.1792 11.5623 19.3112C11.2487 19.6208 10.8815 19.6088 10.5655 19.3048C10.0951 18.852 9.6327 18.3912 9.1775 17.9232C8.8583 17.5952 8.8447 17.2064 9.1199 16.9312C9.4143 16.6376 9.7999 16.6536 10.1471 16.98C10.3023 17.1256 10.4567 17.2736 10.5991 17.432C10.7327 17.5808 10.8503 17.744 11.0263 17.9664L11.0279 17.9656Z" fill="#3F51B5"/>
</svg>

<svg xmlns="http://www.w3.org/2000/svg" width="40" height="40" fill="#3f51b5" xmlns:v="https://vecta.io/nano"><path d="M36.806 10.486L36.81.973l-.002-.082-.002-.05-.002-.028-.002-.028-.001-.008-.003-.03-.004-.03V.714l-.01-.062C36.781.63 36.776.61 36.771.59l-.018-.068-.023-.066L36.706.4c-.01-.022-.022-.046-.036-.067l-.038-.057a.72.72 0 0 0-.093-.106.29.29 0 0 0-.027-.024.51.51 0 0 0-.058-.046h-.001l-.066-.042-.035-.02-.037-.019L36.278 0H3.642C3.24.184 3.12.503 3.12.934v38.131c0 .431.122.75.522.934h32.636a.95.95 0 0 0 .26-.17.73.73 0 0 0 .049-.051l.03-.037.026-.035a.69.69 0 0 0 .026-.039c.006-.009.01-.018.015-.027l.01-.018c.004-.006.009-.018.013-.026l.015-.034.01-.026.03-.092.012-.048.01-.05.008-.051.006-.05.006-.057.004-.078.002-.082-.003-9.514V10.486zm-22.2-9.088l.408-.019 9.878-.01c.374-.002.473.108.463.471l-.011.64.001 1.925V4.6l-.021.412H14.606V1.398zm-.549 5h11.796c.61-.001.847-.24.854-.846l.001-1.29h5.849v31.47H7.374V4.257h5.837l.001 1.286c.008.617.239.854.846.855zm21.384 31.796c0 .322-.078.434-.42.434l-30.114-.001c-.016 0-.031 0-.046-.001l-.034-.002-.037-.002-.027-.003-.027-.004c-.028-.004-.053-.01-.075-.019a.29.29 0 0 1-.065-.033c-.021-.014-.037-.03-.05-.048a.25.25 0 0 1-.035-.065.27.27 0 0 1-.009-.027l-.006-.024-.008-.04-.006-.042-.005-.114V1.806l.001-.044.002-.041a.51.51 0 0 1 .007-.074c.002-.022.004-.027.006-.032l.006-.03.013-.04a.15.15 0 0 1 .012-.026c.009-.019.02-.036.034-.051.008-.009.016-.017.025-.024.018-.014.038-.026.062-.036s.03-.012.04-.014a.41.41 0 0 1 .044-.01.49.49 0 0 1 .038-.006.18.18 0 0 1 .034-.003.28.28 0 0 1 .038-.002c.019-.002.038-.002.059-.002h7.918a1.1 1.1 0 0 1 .107.005c.03.002.058.006.084.013a.44.44 0 0 1 .038.011l.03.012c.018.008.033.017.046.028a.15.15 0 0 1 .03.027l.019.024a.29.29 0 0 1 .044.13c.004.037.006.078.004.124l-.002.038c-.017.236-.013.474-.009.732l.003.362H6.994a3.68 3.68 0 0 0-.218.006l-.065.005-.062.006-.058.007a.9.9 0 0 0-.139.027l-.051.014a.53.53 0 0 0-.054.019c-.018.007-.036.015-.052.024a.69.69 0 0 0-.048.028c-.007.004-.014.009-.02.014a.26.26 0 0 0-.023.018l-.03.026a.42.42 0 0 0-.051.061c-.014.02-.028.042-.039.065l-.017.036a.57.57 0 0 0-.015.039l-.014.04a.29.29 0 0 0-.009.031c-.006.018-.01.038-.014.058a1.25 1.25 0 0 0-.011.062 1.53 1.53 0 0 0-.009.067.93.93 0 0 0-.007.071 3.25 3.25 0 0 0-.007.133 4.3 4.3 0 0 0-.002.147V36.12v.12l.003.107a1.3 1.3 0 0 0 .008.1.95.95 0 0 0 .006.047 1 1 0 0 0 .017.098l.007.031a.63.63 0 0 0 .011.042c.01.037.023.07.038.102l.01.021a.19.19 0 0 0 .015.028c.011.02.023.038.036.055a.4.4 0 0 0 .049.056c.07.07.162.118.276.15l.044.011.095.017a1.98 1.98 0 0 0 .281.018H33.03c.688 0 .908-.22.908-.912V3.813a1.84 1.84 0 0 0-.045-.449l-.026-.086-.021-.049-.026-.05-.023-.037a.43.43 0 0 0-.028-.036.42.42 0 0 0-.071-.069l-.029-.022a.53.53 0 0 0-.05-.031c-.024-.013-.049-.025-.075-.034a.69.69 0 0 0-.075-.024l-.022-.006a.99.99 0 0 0-.052-.011.61.61 0 0 0-.089-.015l-.062-.006a1.01 1.01 0 0 0-.102-.007l-.062-.002-.065-.001-5.799-.001h-.502l.015-1.322c.021-.041.034-.053.049-.064.005-.004.01-.008.017-.012l.019-.012c.006-.004.014-.008.021-.012a.35.35 0 0 1 .038-.018l.028-.012a.33.33 0 0 1 .041-.014l.033-.01.022-.006a.35.35 0 0 1 .058-.007l3.119-.008 3.111.002 1.138-.004.59-.005.058.001.026.001a.69.69 0 0 1 .077.008l.026.005a.19.19 0 0 1 .025.006.24.24 0 0 1 .038.012c.012.004.024.009.034.015l.03.018c.01.007.018.014.026.022s.016.016.022.026.013.019.018.03c.012.022.021.046.028.073l.009.044s.006.031.006.048l.005.086a.3.3 0 0 1 .001.03l-.005 9.099.004 27.299zM28.269 9.275c-.002-.748-.206-.956-.945-.957h-3.678-3.678-3.718l-3.718.002c-.643 0-.878.23-.881.861v2.918c.003.614.24.855.846.856h14.912c.626 0 .856-.238.859-.881V9.275h.001zm-1.375 2.287H13.041V9.714h13.854v1.849zm-2.941 7.967h-6.038c-.133 0-.268.007-.399-.012-.334-.049-.593-.338-.577-.664a.65.65 0 0 1 .542-.654c.141-.032.291-.022.438-.023h12.076c.66 0 .983.216.995.662.013.465-.314.691-.999.691h-6.038.001zm-.019 7.165c-1.997 0-3.994 0-5.991-.002-.159 0-.322 0-.476-.034a.62.62 0 0 1-.526-.658c.004-.343.202-.573.543-.648.141-.031.291-.029.437-.029h12.063c.67 0 1.012.239 1.006.697s-.339.675-1.025.675h-6.031-.001zm-.014 7.15h-5.994c-.133 0-.268.007-.399-.01-.327-.044-.585-.335-.593-.654a.69.69 0 0 1 .602-.686c.118-.015.239-.009.359-.009h12.147c.12 0 .242-.006.359.01a.68.68 0 0 1 .589.694.68.68 0 0 1-.598.645c-.131.017-.266.01-.399.01H23.92v-.001zm-2.082-11.622l3.875.001c.146 0 .296-.004.438.026.329.069.506.297.521.621a.61.61 0 0 1-.467.661c-.162.047-.342.05-.513.05l-7.75.002c-.67 0-1.015-.24-1.006-.696.009-.45.326-.664.988-.665h3.915 0zm-.039 7.142h4.037c.523.001.849.274.841.695-.008.415-.308.664-.825.664h-8.074c-.534 0-.854-.267-.846-.688.008-.412.339-.671.869-.672h3.997l.002.001zm-.041-12.947h-3.834c-.133 0-.267.006-.398-.011-.33-.042-.597-.331-.587-.652.01-.343.185-.583.528-.66.154-.034.318-.028.477-.028l7.707-.001.319.003c.439.03.723.314.706.704-.016.37-.302.638-.725.641l-4.193.004h-.001zM11.041 25.11l2.117-2.152.821-.818c.318-.304.725-.317.998-.044s.27.689-.038.999l-3.336 3.334c-.362.357-.718.345-1.086-.012L9.16 25.06c-.311-.323-.309-.722-.022-.993.278-.262.696-.246 1 .062l.902.981h.001zm-.02 7.158l2.687-2.705.313-.308c.321-.281.686-.278.962.002.264.267.268.666-.023.965l-2.056 2.066-1.303 1.294c-.385.366-.694.36-1.076-.01l-1.358-1.353c-.312-.32-.317-.714-.034-.992.278-.271.686-.266.994.046l.893.994.002.001zm.007-14.302l2.475-2.505.51-.506c.297-.269.715-.265.972-.002.25.256.268.66-.006.938l-3.418 3.421c-.314.31-.681.298-.997-.006l-1.388-1.382c-.319-.328-.333-.717-.058-.992.294-.294.68-.278 1.027.049l.452.452c.134.149.251.312.427.534h.002z"/></svg>
